static/img/kroki/c4dc4f87d533994d2c1e6972fbfe4a48.svg

<?xml version="1.0" encoding="us-ascii" standalone="no"?><svg xmlns="http://www.w3.org/2000/svg" xmlns:xlink="http://www.w3.org/1999/xlink" contentStyleType="text/css" height="152px" preserveAspectRatio="none" style="width:2786px;height:152px;" version="1.1" viewBox="0 0 2786 152" width="2786px" zoomAndPan="magnify"><defs/><g><!--class azure_postgresql_ad_administrator--><g id="elem_azure_postgresql_ad_administrator"><rect codeLine="23" fill="#3D176E" height="39.7891" id="azure_postgresql_ad_administrator" rx="2.5" ry="2.5" style="stroke:#000D19;stroke-width:0.5;" width="334" x="7" y="106.79"/><ellipse cx="22" cy="126.6845" fill="#ADD1B2" rx="11" ry="11" style="stroke:#181818;stroke-width:1.0;"/><path d="M24.9688,132.3252 Q24.3906,132.622 23.75,132.7627 Q23.1094,132.9189 22.4063,132.9189 Q19.9063,132.9189 18.5781,131.2783 Q17.2656,129.622 17.2656,126.497 Q17.2656,123.372 18.5781,121.7158 Q19.9063,120.0595 22.4063,120.0595 Q23.1094,120.0595 23.75,120.2158 Q24.4063,120.372 24.9688,120.6689 L24.9688,123.3877 Q24.3438,122.8095 23.75,122.5439 Q23.1563,122.2627 22.5313,122.2627 Q21.1875,122.2627 20.5,123.3408 Q19.8125,124.4033 19.8125,126.497 Q19.8125,128.5908 20.5,129.6689 Q21.1875,130.7314 22.5313,130.7314 Q23.1563,130.7314 23.75,130.4658 Q24.3438,130.1845 24.9688,129.6064 L24.9688,132.3252 Z " fill="#000000"/><text fill="#D9B8FF" font-family="Helvetica" font-size="17" lengthAdjust="spacing" textLength="292" x="41" y="132.5698">azure_postgresql_ad_administrator</text></g><!--class azure_postgresql_server--><g id="elem_azure_postgresql_server"><rect codeLine="26" fill="#3D176E" height="39.7891" id="azure_postgresql_server" rx="2.5" ry="2.5" style="stroke:#000D19;stroke-width:0.5;" width="243" x="1349.5" y="7"/><ellipse cx="1364.5" cy="26.8945" fill="#ADD1B2" rx="11" ry="11" style="stroke:#181818;stroke-width:1.0;"/><path d="M1367.4688,32.5352 Q1366.8906,32.832 1366.25,32.9727 Q1365.6094,33.1289 1364.9063,33.1289 Q1362.4063,33.1289 1361.0781,31.4883 Q1359.7656,29.832 1359.7656,26.707 Q1359.7656,23.582 1361.0781,21.9258 Q1362.4063,20.2695 1364.9063,20.2695 Q1365.6094,20.2695 1366.25,20.4258 Q1366.9063,20.582 1367.4688,20.8789 L1367.4688,23.5977 Q1366.8438,23.0195 1366.25,22.7539 Q1365.6563,22.4727 1365.0313,22.4727 Q1363.6875,22.4727 1363,23.5508 Q1362.3125,24.6133 1362.3125,26.707 Q1362.3125,28.8008 1363,29.8789 Q1363.6875,30.9414 1365.0313,30.9414 Q1365.6563,30.9414 1366.25,30.6758 Q1366.8438,30.3945 1367.4688,29.8164 L1367.4688,32.5352 Z " fill="#000000"/><text fill="#D9B8FF" font-family="Helvetica" font-size="17" lengthAdjust="spacing" textLength="201" x="1383.5" y="32.7798">azure_postgresql_server</text></g><!--class azure_postgresql_server_backup--><g id="elem_azure_postgresql_server_backup"><rect codeLine="29" fill="#3D176E" height="39.7891" id="azure_postgresql_server_backup" rx="2.5" ry="2.5" style="stroke:#000D19;stroke-width:0.5;" width="311" x="375.5" y="106.79"/><ellipse cx="390.5" cy="126.6845" fill="#ADD1B2" rx="11" ry="11" style="stroke:#181818;stroke-width:1.0;"/><path d="M393.4688,132.3252 Q392.8906,132.622 392.25,132.7627 Q391.6094,132.9189 390.9063,132.9189 Q388.4063,132.9189 387.0781,131.2783 Q385.7656,129.622 385.7656,126.497 Q385.7656,123.372 387.0781,121.7158 Q388.4063,120.0595 390.9063,120.0595 Q391.6094,120.0595 392.25,120.2158 Q392.9063,120.372 393.4688,120.6689 L393.4688,123.3877 Q392.8438,122.8095 392.25,122.5439 Q391.6563,122.2627 391.0313,122.2627 Q389.6875,122.2627 389,123.3408 Q388.3125,124.4033 388.3125,126.497 Q388.3125,128.5908 389,129.6689 Q389.6875,130.7314 391.0313,130.7314 Q391.6563,130.7314 392.25,130.4658 Q392.8438,130.1845 393.4688,129.6064 L393.4688,132.3252 Z " fill="#000000"/><text fill="#D9B8FF" font-family="Helvetica" font-size="17" lengthAdjust="spacing" textLength="269" x="409.5" y="132.5698">azure_postgresql_server_backup</text></g><!--class azure_postgresql_server_configuration--><g id="elem_azure_postgresql_server_configuration"><rect codeLine="32" fill="#3D176E" height="39.7891" id="azure_postgresql_server_configuration" rx="2.5" ry="2.5" style="stroke:#000D19;stroke-width:0.5;" width="363" x="721.5" y="106.79"/><ellipse cx="736.5" cy="126.6845" fill="#ADD1B2" rx="11" ry="11" style="stroke:#181818;stroke-width:1.0;"/><path d="M739.4688,132.3252 Q738.8906,132.622 738.25,132.7627 Q737.6094,132.9189 736.9063,132.9189 Q734.4063,132.9189 733.0781,131.2783 Q731.7656,129.622 731.7656,126.497 Q731.7656,123.372 733.0781,121.7158 Q734.4063,120.0595 736.9063,120.0595 Q737.6094,120.0595 738.25,120.2158 Q738.9063,120.372 739.4688,120.6689 L739.4688,123.3877 Q738.8438,122.8095 738.25,122.5439 Q737.6563,122.2627 737.0313,122.2627 Q735.6875,122.2627 735,123.3408 Q734.3125,124.4033 734.3125,126.497 Q734.3125,128.5908 735,129.6689 Q735.6875,130.7314 737.0313,130.7314 Q737.6563,130.7314 738.25,130.4658 Q738.8438,130.1845 739.4688,129.6064 L739.4688,132.3252 Z " fill="#000000"/><text fill="#D9B8FF" font-family="Helvetica" font-size="17" lengthAdjust="spacing" textLength="321" x="755.5" y="132.5698">azure_postgresql_server_configuration</text></g><!--class azure_postgresql_server_database--><g id="elem_azure_postgresql_server_database"><rect codeLine="35" fill="#3D176E" height="39.7891" id="azure_postgresql_server_database" rx="2.5" ry="2.5" style="stroke:#000D19;stroke-width:0.5;" width="327" x="1119.5" y="106.79"/><ellipse cx="1134.5" cy="126.6845" fill="#ADD1B2" rx="11" ry="11" style="stroke:#181818;stroke-width:1.0;"/><path d="M1137.4688,132.3252 Q1136.8906,132.622 1136.25,132.7627 Q1135.6094,132.9189 1134.9063,132.9189 Q1132.4063,132.9189 1131.0781,131.2783 Q1129.7656,129.622 1129.7656,126.497 Q1129.7656,123.372 1131.0781,121.7158 Q1132.4063,120.0595 1134.9063,120.0595 Q1135.6094,120.0595 1136.25,120.2158 Q1136.9063,120.372 1137.4688,120.6689 L1137.4688,123.3877 Q1136.8438,122.8095 1136.25,122.5439 Q1135.6563,122.2627 1135.0313,122.2627 Q1133.6875,122.2627 1133,123.3408 Q1132.3125,124.4033 1132.3125,126.497 Q1132.3125,128.5908 1133,129.6689 Q1133.6875,130.7314 1135.0313,130.7314 Q1135.6563,130.7314 1136.25,130.4658 Q1136.8438,130.1845 1137.4688,129.6064 L1137.4688,132.3252 Z " fill="#000000"/><text fill="#D9B8FF" font-family="Helvetica" font-size="17" lengthAdjust="spacing" textLength="285" x="1153.5" y="132.5698">azure_postgresql_server_database</text></g><!--class azure_postgresql_server_firewall_rule--><g id="elem_azure_postgresql_server_firewall_rule"><rect codeLine="38" fill="#3D176E" height="39.7891" id="azure_postgresql_server_firewall_rule" rx="2.5" ry="2.5" style="stroke:#000D19;stroke-width:0.5;" width="357" x="1481.5" y="106.79"/><ellipse cx="1496.5" cy="126.6845" fill="#ADD1B2" rx="11" ry="11" style="stroke:#181818;stroke-width:1.0;"/><path d="M1499.4688,132.3252 Q1498.8906,132.622 1498.25,132.7627 Q1497.6094,132.9189 1496.9063,132.9189 Q1494.4063,132.9189 1493.0781,131.2783 Q1491.7656,129.622 1491.7656,126.497 Q1491.7656,123.372 1493.0781,121.7158 Q1494.4063,120.0595 1496.9063,120.0595 Q1497.6094,120.0595 1498.25,120.2158 Q1498.9063,120.372 1499.4688,120.6689 L1499.4688,123.3877 Q1498.8438,122.8095 1498.25,122.5439 Q1497.6563,122.2627 1497.0313,122.2627 Q1495.6875,122.2627 1495,123.3408 Q1494.3125,124.4033 1494.3125,126.497 Q1494.3125,128.5908 1495,129.6689 Q1495.6875,130.7314 1497.0313,130.7314 Q1497.6563,130.7314 1498.25,130.4658 Q1498.8438,130.1845 1499.4688,129.6064 L1499.4688,132.3252 Z " fill="#000000"/><text fill="#D9B8FF" font-family="Helvetica" font-size="17" lengthAdjust="spacing" textLength="315" x="1515.5" y="132.5698">azure_postgresql_server_firewall_rule</text></g><!--class azure_postgresql_server_type--><g id="elem_azure_postgresql_server_type"><rect codeLine="41" fill="#3D176E" height="39.7891" id="azure_postgresql_server_type" rx="2.5" ry="2.5" style="stroke:#000D19;stroke-width:0.5;" width="289" x="1873.5" y="106.79"/><ellipse cx="1888.5" cy="126.6845" fill="#ADD1B2" rx="11" ry="11" style="stroke:#181818;stroke-width:1.0;"/><path d="M1891.4688,132.3252 Q1890.8906,132.622 1890.25,132.7627 Q1889.6094,132.9189 1888.9063,132.9189 Q1886.4063,132.9189 1885.0781,131.2783 Q1883.7656,129.622 1883.7656,126.497 Q1883.7656,123.372 1885.0781,121.7158 Q1886.4063,120.0595 1888.9063,120.0595 Q1889.6094,120.0595 1890.25,120.2158 Q1890.9063,120.372 1891.4688,120.6689 L1891.4688,123.3877 Q1890.8438,122.8095 1890.25,122.5439 Q1889.6563,122.2627 1889.0313,122.2627 Q1887.6875,122.2627 1887,123.3408 Q1886.3125,124.4033 1886.3125,126.497 Q1886.3125,128.5908 1887,129.6689 Q1887.6875,130.7314 1889.0313,130.7314 Q1889.6563,130.7314 1890.25,130.4658 Q1890.8438,130.1845 1891.4688,129.6064 L1891.4688,132.3252 Z " fill="#000000"/><text fill="#D9B8FF" font-family="Helvetica" font-size="17" lengthAdjust="spacing" textLength="247" x="1907.5" y="132.5698">azure_postgresql_server_type</text></g><!--class microsoft_graph_service_principal--><g id="elem_microsoft_graph_service_principal"><rect codeLine="44" fill="#3D176E" height="39.7891" id="microsoft_graph_service_principal" rx="2.5" ry="2.5" style="stroke:#000D19;stroke-width:0.5;" width="324" x="2198" y="106.79"/><ellipse cx="2213" cy="126.6845" fill="#ADD1B2" rx="11" ry="11" style="stroke:#181818;stroke-width:1.0;"/><path d="M2215.9688,132.3252 Q2215.3906,132.622 2214.75,132.7627 Q2214.1094,132.9189 2213.4063,132.9189 Q2210.9063,132.9189 2209.5781,131.2783 Q2208.2656,129.622 2208.2656,126.497 Q2208.2656,123.372 2209.5781,121.7158 Q2210.9063,120.0595 2213.4063,120.0595 Q2214.1094,120.0595 2214.75,120.2158 Q2215.4063,120.372 2215.9688,120.6689 L2215.9688,123.3877 Q2215.3438,122.8095 2214.75,122.5439 Q2214.1563,122.2627 2213.5313,122.2627 Q2212.1875,122.2627 2211.5,123.3408 Q2210.8125,124.4033 2210.8125,126.497 Q2210.8125,128.5908 2211.5,129.6689 Q2212.1875,130.7314 2213.5313,130.7314 Q2214.1563,130.7314 2214.75,130.4658 Q2215.3438,130.1845 2215.9688,129.6064 L2215.9688,132.3252 Z " fill="#000000"/><text fill="#D9B8FF" font-family="Helvetica" font-size="17" lengthAdjust="spacing" textLength="282" x="2232" y="132.5698">microsoft_graph_service_principal</text></g><!--class microsoft_graph_user--><g id="elem_microsoft_graph_user"><rect codeLine="47" fill="#3D176E" height="39.7891" id="microsoft_graph_user" rx="2.5" ry="2.5" style="stroke:#000D19;stroke-width:0.5;" width="222" x="2557" y="106.79"/><ellipse cx="2572" cy="126.6845" fill="#ADD1B2" rx="11" ry="11" style="stroke:#181818;stroke-width:1.0;"/><path d="M2574.9688,132.3252 Q2574.3906,132.622 2573.75,132.7627 Q2573.1094,132.9189 2572.4063,132.9189 Q2569.9063,132.9189 2568.5781,131.2783 Q2567.2656,129.622 2567.2656,126.497 Q2567.2656,123.372 2568.5781,121.7158 Q2569.9063,120.0595 2572.4063,120.0595 Q2573.1094,120.0595 2573.75,120.2158 Q2574.4063,120.372 2574.9688,120.6689 L2574.9688,123.3877 Q2574.3438,122.8095 2573.75,122.5439 Q2573.1563,122.2627 2572.5313,122.2627 Q2571.1875,122.2627 2570.5,123.3408 Q2569.8125,124.4033 2569.8125,126.497 Q2569.8125,128.5908 2570.5,129.6689 Q2571.1875,130.7314 2572.5313,130.7314 Q2573.1563,130.7314 2573.75,130.4658 Q2574.3438,130.1845 2574.9688,129.6064 L2574.9688,132.3252 Z " fill="#000000"/><text fill="#D9B8FF" font-family="Helvetica" font-size="17" lengthAdjust="spacing" textLength="180" x="2591" y="132.5698">microsoft_graph_user</text></g><!--link azure_postgresql_server to azure_postgresql_ad_administrator--><g id="link_azure_postgresql_server_azure_postgresql_ad_administrator"><path codeLine="50" d="M1349.03,35.28 C1144.14,47.96 717.92,75.56 358,106.79 C352.56,107.26 353.0061,107.2245 347.4261,107.7245 " fill="none" id="azure_postgresql_server-to-azure_postgresql_ad_administrator" style="stroke:#1A83AF;stroke-width:2.0;"/><polygon fill="#1A83AF" points="341.45,108.26,350.7711,111.4408,346.43,107.8138,350.0571,103.4727,341.45,108.26" style="stroke:#1A83AF;stroke-width:2.0;"/></g><!--link azure_postgresql_server to azure_postgresql_server_backup--><g id="link_azure_postgresql_server_azure_postgresql_server_backup"><path codeLine="51" d="M1349.09,40.2 C1197.77,55.52 931.79,82.64 704,106.79 C698.29,107.4 698.4469,107.3908 692.5669,108.0108 " fill="none" id="azure_postgresql_server-to-azure_postgresql_server_backup" style="stroke:#1A83AF;stroke-width:2.0;"/><polygon fill="#1A83AF" points="686.6,108.64,695.9698,111.6742,691.5724,108.1157,695.1309,103.7183,686.6,108.64" style="stroke:#1A83AF;stroke-width:2.0;"/></g><!--link azure_postgresql_server to azure_postgresql_server_configuration--><g id="link_azure_postgresql_server_azure_postgresql_server_configuration"><path codeLine="52" d="M1358.44,47.27 C1258.99,64.4 1120.633,88.2221 1021.243,105.3321 " fill="none" id="azure_postgresql_server-to-azure_postgresql_server_configuration" style="stroke:#1A83AF;stroke-width:2.0;"/><polygon fill="#1A83AF" points="1015.33,106.35,1024.8782,108.7651,1020.2575,105.5017,1023.5209,100.8811,1015.33,106.35" style="stroke:#1A83AF;stroke-width:2.0;"/></g><!--link azure_postgresql_server to azure_postgresql_server_database--><g id="link_azure_postgresql_server_azure_postgresql_server_database"><path codeLine="53" d="M1433.86,47.22 C1400.9,64.36 1358.3222,86.4998 1325.3922,103.6398 " fill="none" id="azure_postgresql_server-to-azure_postgresql_server_database" style="stroke:#1A83AF;stroke-width:2.0;"/><polygon fill="#1A83AF" points="1320.07,106.41,1329.9001,105.8028,1324.5052,104.1015,1326.2065,98.7066,1320.07,106.41" style="stroke:#1A83AF;stroke-width:2.0;"/></g><!--link azure_postgresql_server to azure_postgresql_server_firewall_rule--><g id="link_azure_postgresql_server_azure_postgresql_server_firewall_rule"><path codeLine="54" d="M1508.34,47.22 C1541.47,64.36 1584.3016,86.5117 1617.4116,103.6517 " fill="none" id="azure_postgresql_server-to-azure_postgresql_server_firewall_rule" style="stroke:#1A83AF;stroke-width:2.0;"/><polygon fill="#1A83AF" points="1622.74,106.41,1616.5863,98.7203,1618.2997,104.1114,1612.9085,105.8248,1622.74,106.41" style="stroke:#1A83AF;stroke-width:2.0;"/></g><!--link azure_postgresql_server to azure_postgresql_server_type--><g id="link_azure_postgresql_server_azure_postgresql_server_type"><path codeLine="55" d="M1579.4,47.27 C1675.17,64.4 1808.2036,88.1841 1903.9136,105.2941 " fill="none" id="azure_postgresql_server-to-azure_postgresql_server_type" style="stroke:#1A83AF;stroke-width:2.0;"/><polygon fill="#1A83AF" points="1909.82,106.35,1901.6644,100.8286,1904.898,105.4701,1900.2565,108.7038,1909.82,106.35" style="stroke:#1A83AF;stroke-width:2.0;"/></g><!--link azure_postgresql_server to microsoft_graph_service_principal--><g id="link_azure_postgresql_server_microsoft_graph_service_principal"><path codeLine="56" d="M1592.75,41.29 C1749.67,58.55 2017.086,87.9639 2191.606,107.1639 " fill="none" id="azure_postgresql_server-to-microsoft_graph_service_principal" style="stroke:#1A83AF;stroke-width:2.0;"/><polygon fill="#1A83AF" points="2197.57,107.82,2189.0614,102.8598,2192.6,107.2732,2188.1866,110.8118,2197.57,107.82" style="stroke:#1A83AF;stroke-width:2.0;"/></g><!--link azure_postgresql_server to microsoft_graph_user--><g id="link_azure_postgresql_server_microsoft_graph_user"><path codeLine="57" d="M1592.7,33.98 C1791.38,44.57 2197.58,68.93 2540,106.79 C2545.47,107.4 2545.1157,107.321 2550.7557,108.021 " fill="none" id="azure_postgresql_server-to-microsoft_graph_user" style="stroke:#1A83AF;stroke-width:2.0;"/><polygon fill="#1A83AF" points="2556.71,108.76,2548.2712,103.6819,2551.7481,108.1442,2547.2859,111.621,2556.71,108.76" style="stroke:#1A83AF;stroke-width:2.0;"/></g><!--SRC=[fP9DQy9048Rl-HKBdWLJQTLBmGhINgJKtae9a-niihZPJMStYfR-zoQsbdnK3GfxsddcdNS-4icHOPgvBKin3P6iPrTIPq2GiYcHsSoCCiHwGe0OZfh1kT7kBB205DaZgZKw6K6JU4rajD9eBRkfX1uWMiLaSir_v1s1jaK8jQjGCmNMJfqZ6UOEAsRu91mBqIIRehqXzqTtsC8CSQHVP30OS7_IHCwMEjdt7x6KEsH-TMWBux1birLYJvrqMH8Lawr63_6Z7f-1SwbZTblvU_dnH1gfzhzCW9jDIGjGjbh6EYGqRflXhDKLJiPSZFw5dux1NbIEZi4k9mmoOrrCQ3zK0BnugTJI5eVYYeHFp_iw1bkaDNP1Wh2maMTToCXe8UEyA2wDxfB0mK485hkmGX9kGAc0SjKfePnXbKjbHCOQuOAO84lsc8oAJ98waXceKt1k3yCwDid-My-VZeVJ-Nl__lnkBfIfhUGwZTgohfCwhF4wbTg2hvCgLzzDuUnHN2PJdelt3G00]--></g></svg>

<svg xmlns="http://www.w3.org/2000/svg" width="2786" height="152" viewBox="0 0 2786 152"><rect width="334" height="39.789" x="7" y="106.79" fill="#3D176E" rx="2.5" ry="2.5" style="stroke:#000d19;stroke-width:.5"/><circle cx="22" cy="126.684" r="11" fill="#ADD1B2" style="stroke:#181818;stroke-width:1"/><path d="M24.969 132.325q-.578.297-1.219.438-.64.156-1.344.156-2.5 0-3.828-1.64-1.312-1.657-1.312-4.782t1.312-4.781q1.328-1.656 3.828-1.656.703 0 1.344.156.656.156 1.219.453v2.719q-.625-.579-1.219-.844-.594-.281-1.219-.281-1.343 0-2.031 1.078-.687 1.062-.687 3.156t.687 3.172q.688 1.062 2.031 1.062.625 0 1.219-.265.594-.281 1.219-.86z"/><text x="41" y="132.57" fill="#D9B8FF" font-family="Helvetica" font-size="17" textLength="292">azure_postgresql_ad_administrator</text><rect width="243" height="39.789" x="1349.5" y="7" fill="#3D176E" rx="2.5" ry="2.5" style="stroke:#000d19;stroke-width:.5"/><circle cx="1364.5" cy="26.895" r="11" fill="#ADD1B2" style="stroke:#181818;stroke-width:1"/><path d="M1367.469 32.535q-.578.297-1.219.438-.64.156-1.344.156-2.5 0-3.828-1.64-1.312-1.657-1.312-4.782t1.312-4.781q1.328-1.656 3.828-1.656.703 0 1.344.156.656.156 1.219.453v2.719q-.625-.578-1.219-.844-.594-.281-1.219-.281-1.343 0-2.031 1.078-.687 1.062-.687 3.156t.687 3.172q.688 1.062 2.031 1.062.625 0 1.219-.265.594-.281 1.219-.86z"/><text x="1383.5" y="32.78" fill="#D9B8FF" font-family="Helvetica" font-size="17" textLength="201">azure_postgresql_server</text><rect width="311" height="39.789" x="375.5" y="106.79" fill="#3D176E" rx="2.5" ry="2.5" style="stroke:#000d19;stroke-width:.5"/><circle cx="390.5" cy="126.684" r="11" fill="#ADD1B2" style="stroke:#181818;stroke-width:1"/><path d="M393.469 132.325q-.578.297-1.219.438-.64.156-1.344.156-2.5 0-3.828-1.64-1.312-1.657-1.312-4.782t1.312-4.781q1.328-1.656 3.828-1.656.703 0 1.344.156.656.156 1.219.453v2.719q-.625-.579-1.219-.844-.594-.281-1.219-.281-1.344 0-2.031 1.078-.687 1.062-.687 3.156t.687 3.172q.688 1.062 2.031 1.062.625 0 1.219-.265.594-.281 1.219-.86z"/><text x="409.5" y="132.57" fill="#D9B8FF" font-family="Helvetica" font-size="17" textLength="269">azure_postgresql_server_backup</text><rect width="363" height="39.789" x="721.5" y="106.79" fill="#3D176E" rx="2.5" ry="2.5" style="stroke:#000d19;stroke-width:.5"/><circle cx="736.5" cy="126.684" r="11" fill="#ADD1B2" style="stroke:#181818;stroke-width:1"/><path d="M739.469 132.325q-.578.297-1.219.438-.64.156-1.344.156-2.5 0-3.828-1.64-1.312-1.657-1.312-4.782t1.312-4.781q1.328-1.656 3.828-1.656.703 0 1.344.156.656.156 1.219.453v2.719q-.625-.579-1.219-.844-.594-.281-1.219-.281-1.343 0-2.031 1.078-.687 1.062-.687 3.156t.687 3.172q.688 1.062 2.031 1.062.625 0 1.219-.265.594-.281 1.219-.86z"/><text x="755.5" y="132.57" fill="#D9B8FF" font-family="Helvetica" font-size="17" textLength="321">azure_postgresql_server_configuration</text><rect width="327" height="39.789" x="1119.5" y="106.79" fill="#3D176E" rx="2.5" ry="2.5" style="stroke:#000d19;stroke-width:.5"/><circle cx="1134.5" cy="126.684" r="11" fill="#ADD1B2" style="stroke:#181818;stroke-width:1"/><path d="M1137.469 132.325q-.578.297-1.219.438-.64.156-1.344.156-2.5 0-3.828-1.64-1.312-1.657-1.312-4.782t1.312-4.781q1.328-1.656 3.828-1.656.703 0 1.344.156.656.156 1.219.453v2.719q-.625-.579-1.219-.844-.594-.281-1.219-.281-1.343 0-2.031 1.078-.687 1.062-.687 3.156t.687 3.172q.688 1.062 2.031 1.062.625 0 1.219-.265.594-.281 1.219-.86z"/><text x="1153.5" y="132.57" fill="#D9B8FF" font-family="Helvetica" font-size="17" textLength="285">azure_postgresql_server_database</text><rect width="357" height="39.789" x="1481.5" y="106.79" fill="#3D176E" rx="2.5" ry="2.5" style="stroke:#000d19;stroke-width:.5"/><circle cx="1496.5" cy="126.684" r="11" fill="#ADD1B2" style="stroke:#181818;stroke-width:1"/><path d="M1499.469 132.325q-.578.297-1.219.438-.64.156-1.344.156-2.5 0-3.828-1.64-1.312-1.657-1.312-4.782t1.312-4.781q1.328-1.656 3.828-1.656.703 0 1.344.156.656.156 1.219.453v2.719q-.625-.579-1.219-.844-.594-.281-1.219-.281-1.343 0-2.031 1.078-.687 1.062-.687 3.156t.687 3.172q.688 1.062 2.031 1.062.625 0 1.219-.265.594-.281 1.219-.86z"/><text x="1515.5" y="132.57" fill="#D9B8FF" font-family="Helvetica" font-size="17" textLength="315">azure_postgresql_server_firewall_rule</text><rect width="289" height="39.789" x="1873.5" y="106.79" fill="#3D176E" rx="2.5" ry="2.5" style="stroke:#000d19;stroke-width:.5"/><circle cx="1888.5" cy="126.684" r="11" fill="#ADD1B2" style="stroke:#181818;stroke-width:1"/><path d="M1891.469 132.325q-.578.297-1.219.438-.64.156-1.344.156-2.5 0-3.828-1.64-1.312-1.657-1.312-4.782t1.312-4.781q1.328-1.656 3.828-1.656.703 0 1.344.156.656.156 1.219.453v2.719q-.625-.579-1.219-.844-.594-.281-1.219-.281-1.343 0-2.031 1.078-.687 1.062-.687 3.156t.687 3.172q.688 1.062 2.031 1.062.625 0 1.219-.265.594-.281 1.219-.86z"/><text x="1907.5" y="132.57" fill="#D9B8FF" font-family="Helvetica" font-size="17" textLength="247">azure_postgresql_server_type</text><rect width="324" height="39.789" x="2198" y="106.79" fill="#3D176E" rx="2.5" ry="2.5" style="stroke:#000d19;stroke-width:.5"/><circle cx="2213" cy="126.684" r="11" fill="#ADD1B2" style="stroke:#181818;stroke-width:1"/><path d="M2215.969 132.325q-.578.297-1.219.438-.64.156-1.344.156-2.5 0-3.828-1.64-1.312-1.657-1.312-4.782t1.312-4.781q1.328-1.656 3.828-1.656.703 0 1.344.156.656.156 1.219.453v2.719q-.625-.579-1.219-.844-.594-.281-1.219-.281-1.343 0-2.031 1.078-.687 1.062-.687 3.156t.687 3.172q.688 1.062 2.031 1.062.625 0 1.219-.265.594-.281 1.219-.86z"/><text x="2232" y="132.57" fill="#D9B8FF" font-family="Helvetica" font-size="17" textLength="282">microsoft_graph_service_principal</text><rect width="222" height="39.789" x="2557" y="106.79" fill="#3D176E" rx="2.5" ry="2.5" style="stroke:#000d19;stroke-width:.5"/><circle cx="2572" cy="126.684" r="11" fill="#ADD1B2" style="stroke:#181818;stroke-width:1"/><path d="M2574.969 132.325q-.578.297-1.219.438-.64.156-1.344.156-2.5 0-3.828-1.64-1.312-1.657-1.312-4.782t1.312-4.781q1.328-1.656 3.828-1.656.703 0 1.344.156.656.156 1.219.453v2.719q-.625-.579-1.219-.844-.594-.281-1.219-.281-1.343 0-2.031 1.078-.687 1.062-.687 3.156t.687 3.172q.688 1.062 2.031 1.062.625 0 1.219-.265.594-.281 1.219-.86z"/><text x="2591" y="132.57" fill="#D9B8FF" font-family="Helvetica" font-size="17" textLength="180">microsoft_graph_user</text><path fill="none" d="M1349.03 35.28C1144.14 47.96 717.92 75.56 358 106.79c-5.44.47-4.994.434-10.574.934" style="stroke:#1a83af;stroke-width:2"/><path fill="#1A83AF" d="m341.45 108.26 9.321 3.18-4.341-3.626 3.627-4.341z" style="stroke:#1a83af;stroke-width:2"/><path fill="none" d="M1349.09 40.2C1197.77 55.52 931.79 82.64 704 106.79c-5.71.61-5.553.6-11.433 1.22" style="stroke:#1a83af;stroke-width:2"/><path fill="#1A83AF" d="m686.6 108.64 9.37 3.034-4.398-3.558 3.559-4.398z" style="stroke:#1a83af;stroke-width:2"/><path fill="none" d="M1358.44 47.27c-99.45 17.13-237.807 40.952-337.197 58.062" style="stroke:#1a83af;stroke-width:2"/><path fill="#1A83AF" d="m1015.33 106.35 9.548 2.415-4.62-3.263 3.263-4.62z" style="stroke:#1a83af;stroke-width:2"/><path fill="none" d="M1433.86 47.22c-32.96 17.14-75.538 39.28-108.468 56.42" style="stroke:#1a83af;stroke-width:2"/><path fill="#1A83AF" d="m1320.07 106.41 9.83-.607-5.395-1.701 1.701-5.395z" style="stroke:#1a83af;stroke-width:2"/><path fill="none" d="M1508.34 47.22c33.13 17.14 75.962 39.292 109.072 56.432" style="stroke:#1a83af;stroke-width:2"/><path fill="#1A83AF" d="m1622.74 106.41-6.154-7.69 1.714 5.391-5.391 1.714z" style="stroke:#1a83af;stroke-width:2"/><path fill="none" d="M1579.4 47.27c95.77 17.13 228.804 40.914 324.514 58.024" style="stroke:#1a83af;stroke-width:2"/><path fill="#1A83AF" d="m1909.82 106.35-8.156-5.521 3.234 4.641-4.641 3.234z" style="stroke:#1a83af;stroke-width:2"/><path fill="none" d="M1592.75 41.29c156.92 17.26 424.336 46.674 598.856 65.874" style="stroke:#1a83af;stroke-width:2"/><path fill="#1A83AF" d="m2197.57 107.82-8.509-4.96 3.539 4.413-4.413 3.539z" style="stroke:#1a83af;stroke-width:2"/><path fill="none" d="M1592.7 33.98c198.68 10.59 604.88 34.95 947.3 72.81 5.47.61 5.116.531 10.756 1.231" style="stroke:#1a83af;stroke-width:2"/><path fill="#1A83AF" d="m2556.71 108.76-8.439-5.078 3.477 4.462-4.462 3.477z" style="stroke:#1a83af;stroke-width:2"/></svg>
